source/img/icons/settings.svg

<svg width="20" height="22" viewBox="0 0 20 22" fill="none" xmlns="http://www.w3.org/2000/svg">
<path d="M9.66675 0L19.1667 5.5V16.5L9.66675 22L0.166748 16.5V5.5L9.66675 0ZM9.66675 2.311L2.16675 6.653V15.347L9.66675 19.689L17.1667 15.347V6.653L9.66675 2.311ZM9.66675 15C8.60588 15 7.58847 14.5786 6.83832 13.8284C6.08818 13.0783 5.66675 12.0609 5.66675 11C5.66675 9.93913 6.08818 8.92172 6.83832 8.17157C7.58847 7.42143 8.60588 7 9.66675 7C10.7276 7 11.745 7.42143 12.4952 8.17157C13.2453 8.92172 13.6667 9.93913 13.6667 11C13.6667 12.0609 13.2453 13.0783 12.4952 13.8284C11.745 14.5786 10.7276 15 9.66675 15ZM9.66675 13C10.1972 13 10.7059 12.7893 11.081 12.4142C11.456 12.0391 11.6667 11.5304 11.6667 11C11.6667 10.4696 11.456 9.96086 11.081 9.58579C10.7059 9.21071 10.1972 9 9.66675 9C9.13632 9 8.62761 9.21071 8.25253 9.58579C7.87746 9.96086 7.66675 10.4696 7.66675 11C7.66675 11.5304 7.87746 12.0391 8.25253 12.4142C8.62761 12.7893 9.13632 13 9.66675 13Z" fill="white"/>
</svg>

<svg width="20" height="22" fill="none" xmlns="http://www.w3.org/2000/svg"><path d="M9.667 0l9.5 5.5v11l-9.5 5.5-9.5-5.5v-11l9.5-5.5zm0 2.311l-7.5 4.342v8.694l7.5 4.342 7.5-4.342V6.653l-7.5-4.342zm0 12.689a4 4 0 110-8 4 4 0 010 8zm0-2a2 2 0 100-4 2 2 0 000 4z" fill="#fff"/></svg>
